src/categories-icons-sprite/categories/svg-cat-clothes-women.svg

<svg width="48" height="53" viewBox="0 0 48 53" fill="none" xmlns="http://www.w3.org/2000/svg">
<path class="p-FDE4E4" d="M3.96582 13.2778H6.71158V23.9448H3.96582V13.2778Z" fill="#A1D1FD"/>
<path class="p-FDE4E4" d="M0 17.2397H10.678V19.9827H0V17.2397Z" fill="#A1D1FD"/>
<path class="p-FCCED3" d="M41.3896 28.5166H43.932V39.1836H41.3896V28.5166Z" fill="#B9DFFC"/>
<path class="p-FCCED3" d="M37.3223 32.5801H48.0002V35.1198H37.3223V32.5801Z" fill="#B9DFFC"/>
<path class="p-FDE4E4" d="M5.18652 34.6118H7.93229V37.3548H5.18652V34.6118Z" fill="#A1D1FD"/>
<path class="p-FCCED3" d="M39.7627 16.3257H42.5085V19.0686H39.7627V16.3257Z" fill="#B9DFFC"/>
<path class="p-E63950" d="M34.3719 0.985352H32.2363V8.18135H34.3719V0.985352Z" fill="#65B3E7"/>
<path class="p-AE2538" d="M37.4231 51.4758V52.9997H31.2909H30.1011H28.2401H20.6943V22.4209H30.2028C35.1755 27.3887 37.4231 44.4356 37.4231 51.4758Z" fill="#4D98CB"/>
<path class="p-E63950" d="M34.3721 7.18272V13.5523C34.3721 17.5449 32.0636 19.3735 30.2027 22.4211H28.8806H17.6943L23.6943 13.1766C25.5551 10.0678 32.1037 12.5067 32.2366 7.18262L34.3721 7.18272Z" fill="#65B3E7"/>
<path class="p-E63950" d="M31.2912 52.9998H29.4912C29.6437 46.4167 28.9014 39.7016 27.2539 33.3929L28.9419 32.6919C30.6506 39.2749 31.4436 46.173 31.2912 52.9998Z" fill="#76B7E2"/>
<path class="p-FF637B" d="M13.0166 0.985352H15.1522V8.18135H13.0166V0.985352Z" fill="#AFD9F6"/>
<path class="p-FF637B" d="M13.0166 7.18272V13.5523C13.0166 17.5449 15.3251 19.3735 17.186 22.4211H18.508H23.6945V13.1766C21.8335 10.0678 15.285 12.5067 15.1521 7.18262L13.0166 7.18272Z" fill="#AFD9F6"/>
<path class="p-E63950" d="M9.96582 51.4758V52.9997H16.098H17.2879H19.1489H23.6946V22.4209H17.1862C12.2135 27.3887 9.96582 44.4356 9.96582 51.4758Z" fill="#58ADE5"/>
<path class="p-FF637B" d="M16.0985 52.9998H17.8985C17.746 46.4167 18.4884 39.7016 20.1358 33.3929L18.4478 32.6919C16.7391 39.2749 15.9461 46.173 16.0985 52.9998Z" fill="#5FBEFF"/>
</svg>

<svg width="48" height="53" fill="none" xmlns="http://www.w3.org/2000/svg"><path class="p-FDE4E4" d="M3.966 13.278h2.746v10.667H3.966V13.278z" fill="#A1D1FD"/><path class="p-FDE4E4" d="M0 17.24h10.678v2.743H0V17.24z" fill="#A1D1FD"/><path class="p-FCCED3" d="M41.39 28.517h2.542v10.667H41.39V28.517z" fill="#B9DFFC"/><path class="p-FCCED3" d="M37.322 32.58H48v2.54H37.322v-2.54z" fill="#B9DFFC"/><path class="p-FDE4E4" d="M5.187 34.612h2.745v2.743H5.187v-2.743z" fill="#A1D1FD"/><path class="p-FCCED3" d="M39.763 16.326h2.745v2.743h-2.745v-2.743z" fill="#B9DFFC"/><path class="p-E63950" d="M34.372.985h-2.136v7.196h2.136V.985z" fill="#65B3E7"/><path class="p-AE2538" d="M37.423 51.476V53H20.694V22.42h9.509c4.973 4.969 7.22 22.016 7.22 29.056z" fill="#4D98CB"/><path class="p-E63950" d="M34.372 7.183v6.37c0 3.992-2.308 5.82-4.17 8.868H17.695l6-9.244c1.861-3.11 8.41-.67 8.543-5.994h2.135z" fill="#65B3E7"/><path class="p-E63950" d="M31.291 53h-1.8c.153-6.583-.59-13.298-2.237-19.607l1.688-.701A74.58 74.58 0 0131.292 53z" fill="#76B7E2"/><path class="p-FF637B" d="M13.017.985h2.135v7.196h-2.135V.985z" fill="#AFD9F6"/><path class="p-FF637B" d="M13.017 7.183v6.37c0 3.992 2.308 5.82 4.169 8.868h6.509v-9.244c-1.861-3.11-8.41-.67-8.543-5.994h-2.135z" fill="#AFD9F6"/><path class="p-E63950" d="M9.966 51.476V53h13.729V22.42h-6.509c-4.973 4.969-7.22 22.016-7.22 29.056z" fill="#58ADE5"/><path class="p-FF637B" d="M16.099 53h1.8c-.153-6.583.59-13.298 2.237-19.607l-1.688-.701A74.58 74.58 0 0016.098 53z" fill="#5FBEFF"/></svg>
